X:1
T:Laud, CM
T:Laud, CM
T:John Bacchus Dykes, 1862
T:Public Domain Courtesy of the Cyber Hymnal™
C:John Bacchus Dykes, 1862
Z:Public Domain
Z:Courtesy of the Cyber Hymnal™
%%score ( 1 2 ) ( 3 4 )
L:1/8
Q:1/4=115
M:4/4
K:A
V:1 treble 
V:2 treble 
V:3 bass 
V:4 bass 
V:1
 E2 | [CA]2 [CA]2 [DA]2 [DB]2 | [Cc]3 [DB] [DA]2 [Ee]2 | [Fd]2 [Ec]2 [^Dc]2 [DB]2 | [EB]6 [FB]2 | %5
 [^Ec]3 [EG] [FA]2 A2 | [CA]3 [CE] [DF]2 [EA]2 | B4 c4 x2 | [Ec]4 B4 | [CA]6 |] %10
V:2
 E2 | x8 | x8 | x8 | x8 | x6 (=ED) | x8 | (E2 D2) (C2 ^D2) x2 | x4 (E2 D2) | x6 |] %10
V:3
 [A,C]2 | A,2 [F,A,]2 [D,F,]2 (F,G,) | [A,,A,]3 [A,,B,] [A,,C]2 [C,A,]2 | %3
 [D,A,]2 [A,,A,]2 [B,,A,]2 (G,F,) | [E,G,]6 [D,F,]2 | [C,G,]3 [C,C] [F,C]2 [F,A,]2 | %6
 [E,=G,]3 [E,G,] [D,A,]2 [C,A,]2 | [B,,G,]4 A,4 F,2 | [E,A,]4 [E,G,]4 | [A,,A,]6 |] %10
V:4
 x2 | A,2 x2 B,,2 x2 | x8 | x6 B,,2 | x8 | x8 | x8 | x4 A,,2 x4 | x8 | x6 |] %10

